!!!COM: Palestrina, Giovanni Perluigi da
!!!OPR: Missa Sacerdotes Domini
!!!OMD: Credo
!!!OTL: Et iterum
**kern	**kern	**kern	**kern
*Ibarit	*Icalto	*Icalto	*Icant
!Baritone	!Altus 2	!Altus 1	!Cantus
*clefF4	*clefG2	*clefG2	*clefG2
*k[]	*k[]	*k[]	*k[]
*G:mix	*G:mix	*G:mix	*G:mix
*M4/2	*M4/2	*M4/2	*M4/2
=138	=138	=138	=138
0c	0e	0g	0cc
=139	=139	=139	=139
1.A	1.e	1.a	1.cc
2A	2f#	2a	2cc
=140	=140	=140	=140
2G	2g	2d	2b
2F	2a	2f	2cc
2c	2g	2e	2cc
2d	2f	2f	2b
=141	=141	=141	=141
0c	2.e	2g	2cc
.	.	2g	2cc
.	4f	.	.
.	[1g	2.cc	2.ee
.	.	4cc	4ee
=142	=142	=142	=142
1r	1g]	2b	2dd
.	.	2b	2dd
2r	1r	2g	2b
2c	.	[2a	[2cc
=143	=143	=143	=143
2.e	1r	4a]	4cc]
.	.	4g	4b
.	.	1g	4b
4e	.	.	8a
.	.	.	8g
2d	2r	.	1a
2d	2d	2f#	.
=144	=144	=144	=144
2B	2d	0g	1g
2.c	4e	.	.
.	4d	.	.
.	4e	.	1r
4B	4f	.	.
4B	[2g	.	.
8A	.	.	.
8G	.	.	.
=145	=145	=145	=145
1A	4g]	0r	1cc
.	4f#	.	.
.	2f#	.	.
1G	2g	.	1b
.	2g	.	.
=146	=146	=146	=146
1A	2f	1cc	1a
.	4e	.	.
.	4d	.	.
1E	1e	1b	1g
=147	=147	=147	=147
1F	1c	1a	1f
1C	2c	1g	1e
.	2e	.	.
=148	=148	=148	=148
1D	2.d	1f	2r
.	.	.	1a
.	4c	.	.
1E	1B	1e	.
.	.	.	2g
=149	=149	=149	=149
0r	4A	2r	1cc
.	4B	.	.
.	4c	1a	.
.	4d	.	.
.	1e	.	1b
.	.	2g	.
=150	=150	=150	=150
0r	2r	2cc	1a
.	1d	4f	.
.	.	4g	.
.	.	4a	2f
.	.	4b	.
.	2c	[2cc	2g
=151	=151	=151	=151
0r	1f	2cc]	4a
.	.	.	4b
.	.	2a	4cc
.	.	.	4dd
.	2e	2cc	4ee
.	.	.	4ff
.	2e	2b	[2gg
=152	=152	=152	=152
1r	2c	1a	2gg]
.	2d	.	2ff#
2r	4e	1g	2gg
.	4f	.	.
2c	4g	.	2ee
.	4e	.	.
=153	=153	=153	=153
2A	1f	0r	2cc
2B	.	.	2dd
4c	2e	.	4ee
4B	.	.	4dd
4A	2e	.	4cc
4G	.	.	4b
=154	=154	=154	=154
2F	2f	2r	2a
2G	2d	2g	2b
1A	2.c	2e	1cc
.	.	2f#	.
.	4d	.	.
=155	=155	=155	=155
1G	4e	4g	1b
.	4f	4f	.
.	1g	4e	.
.	.	4d	.
1r	.	2c	1a
.	2f#	2d	.
=156	=156	=156	=156
2r	1g	1.e	0g
1c	.	.	.
.	2r	.	.
2B	[2g	2d	.
=157	=157	=157	=157
2.A	2g]	2c	0r
.	2f	1cc	.
4A	.	.	.
1G	2e	.	.
.	2d	2b	.
=158	=158	=158	=158
1A	2f	2.a	2r
.	4e	.	1cc
.	4d	4a	.
1E	1e	1g	.
.	.	.	2b
=159	=159	=159	=159
2.F	2r	1f	2.a
.	1c	.	.
4F	.	.	4a
1G	.	2d	2g
.	2B	[2g	2dd
=160	=160	=160	=160
0r	2c	4g]	2ee
.	.	4e	.
.	2A	2.a	2.ff
.	1c	.	.
.	.	4g	4ee
.	.	4g	[2ee
.	.	8f	.
.	.	8e	.
=161	=161	=161	=161
2r	1d	2f	2ee]
1d	.	2f	2dd
.	1A	2e	1ee
2c	.	[2a	.
=162	=162	=162	=162
2A	0r	2a]	0r
2B	.	2g	.
4c	.	4e	.
4d	.	4f	.
4e	.	4g	.
4c	.	4e	.
=163	=163	=163	=163
2d	0r	2f	1r
1c	.	2e	.
.	.	1d	1dd
2B	.	.	.
=164	=164	=164	=164
2c	2r	2c	1ee
2c	2e	2g	.
1F	1f	1a	1cc
=165	=165	=165	=165
2G	2d	2g	1b
2G	2d	2g	.
2.A	2.c	2.e	2.cc
4A	4c	4f#	4cc
=166	=166	=166	=166
2G	2d	2g	2b
1F	1f	1cc	1a
2G	2d	2b	2g
=167	=167	=167	=167
2.A	2f	1a	0cc
.	4e	.	.
4B	4d	.	.
1c	1e	2g	.
.	.	[2g	.
=168	=168	=168	=168
1G	0d	2g]	2b
.	.	2d	1dd
1r	.	1f	.
.	.	.	2a
=169	=169	=169	=169
0r	0r	2e	1cc
.	.	2f	.
.	.	2g	2b
.	.	2e	2cc
=170	=170	=170	=170
0r	0r	2.d	2dd
.	.	.	2b
.	.	4e	.
.	.	4f	4a
.	.	4g	4b
.	.	4a	4cc
.	.	4b	4dd
=171	=171	=171	=171
2r	2.c	2cc	2ee
1c	.	1cc	1ee
.	4d	.	.
.	4e	.	.
.	4f	.	.
2G	2g	2b	2dd
=172	=172	=172	=172
1A	2e	1a	1cc
.	1f	.	.
1c	.	1g	1cc
.	2e	.	.
=173	=173	=173	=173
1F	1f	1a	1cc
1G	1d	1g	1b
=174	=174	=174	=174
2r	2.c	1g	1ee
2c	.	.	.
.	4d	.	.
2c	4e	2cc	2ee
.	4f	.	.
2G	2g	2b	2dd
=175	=175	=175	=175
1A	2e	1a	1cc
.	2f	.	.
1c	2f	1g	1cc
.	2e	.	.
=176	=176	=176	=176
1F	1f	1a	1cc
1G	1d	2g	1b
.	.	[2g	.
=177	=177	=177	=177
2.c	2.e	4g]	0r
.	.	4f	.
.	.	2g	.
4B	4d	.	.
2c	2e	2a	.
2d	2f	2b	.
=178	=178	=178	=178
2e	2g	4cc	2.cc
.	.	4b	.
2.f	2.a	4a	.
.	.	4g	4b
.	.	4f	2cc
4e	4g	4g	.
2d	2f	[2a	2dd
=179	=179	=179	=179
2c#	2e	4a]	2ee
.	.	4g	.
1d	2d	4f	1ff
.	.	4e	.
.	2.a	2d	.
2c#	.	2A	[2ee
.	4g	.	.
=180	=180	=180	=180
1d	1f	0a	2ee]
.	.	.	2.dd
1A	1e	.	.
.	.	.	4cc#
.	.	.	2cc#
=181	=181	=181	=181
1D	1d	2f	1dd
.	.	2.d	.
2.G	2.B	.	1r
.	.	4c	.
.	.	2d	.
4F	4A	.	.
=182	=182	=182	=182
2G	2B	2e	1r
2A	2c	2f	.
2B	2d	4g	2.g
.	.	4f	.
[2c	[2e	4e	.
.	.	4d	4f
=183	=183	=183	=183
4c]	4e]	4c	2g
4B	4d	4d	.
2A	2c	4e	2a
.	.	4f#	.
2G	2d	2g	2b
[2F	[2f	[2a	[2cc
=184	=184	=184	=184
2F]	4f]	2a]	2cc]
.	4e	.	.
2G	4d	2g	2b
.	4c	.	.
1D	1d	1f#	1a
=185	=185	=185	=185
0G	0d	0g	0b
*-	*-	*-	*-
!!!CDT: 1525/^1526/-1594/2/2
!!!OCY: Italia
!!!AGN: Mass (Canonic)
!!!AST: renaissance, vocal
!!!ASW: Motet (unidentified)
!!!PWK: Masses, Book 8
!!!RNB: Cadence finals: C
!!!YOR: Le Opere Complete, v. 24, p. 157
!!!YOO: Rome, Italy: Fratelli Scalera
!!!END: 1992//
!!!EED: John Miller
!!!YEC: Copyright 2000, John Miller
!!!YEN: United States of America
!!!YEM: Rights to all derivative electronic formats reserved.
!!!YEM: Refer to licensing agreement for further details.
!!!YEM: This file must be accompanied by the licensing agreement.
!!!YEM: A copy of the licensing agreement may be found at http://www.music-cog.ohio-state.edu/HumdrumDatabases/Palestrina/license.txt
!!!EMD: converted to Humdrum by Bret Aarden
